src/assets/svg/event-hero-image1.svg

<svg width="696" height="678" viewBox="0 0 696 678" fill="none" xmlns="http://www.w3.org/2000/svg">
<path d="M23.678 22.1885C29.7971 22.1885 34.7576 17.2215 34.7576 11.0943C34.7576 4.96707 29.7971 0 23.678 0C17.5589 0 12.5984 4.96707 12.5984 11.0943C12.5984 17.2215 17.5589 22.1885 23.678 22.1885Z" fill="#3F3D56"/>
<path d="M61.9529 22.1885C68.072 22.1885 73.0325 17.2215 73.0325 11.0943C73.0325 4.96707 68.072 0 61.9529 0C55.8339 0 50.8734 4.96707 50.8734 11.0943C50.8734 17.2215 55.8339 22.1885 61.9529 22.1885Z" fill="#3F3D56"/>
<path d="M100.228 22.1885C106.347 22.1885 111.307 17.2215 111.307 11.0943C111.307 4.96707 106.347 0 100.228 0C94.1088 0 89.1483 4.96707 89.1483 11.0943C89.1483 17.2215 94.1088 22.1885 100.228 22.1885Z" fill="#3F3D56"/>
<path d="M656.884 81.9199H20.9069V419.316H656.884V81.9199Z" fill="#F0F0F0"/>
<path d="M656.884 145.075V141.766H533.085V81.9199H529.78V141.766H405.98V81.9199H402.676V141.766H278.876V81.9199H275.572V141.766H151.772V81.9199H148.467V141.766H20.9069V145.075H148.467V211.19H20.9069V214.499H148.467V280.613H20.9069V283.922H148.467V350.025H20.9069V353.334H148.467V419.316H151.772V353.334H275.572V419.316H278.876V353.334H402.676V419.316H405.98V353.334H529.78V419.316H533.085V353.334H656.884V350.025H533.085V283.922H656.884V280.613H533.085V214.499H656.884V211.19H533.085V145.075L656.884 145.075ZM275.572 350.025H151.772V283.922H275.572V350.025ZM275.572 280.613H151.772V214.499H275.572V280.613ZM275.572 211.19H151.772V145.075H275.572V211.19ZM402.676 350.025H278.876V283.922H402.676V350.025ZM402.676 280.613H278.876V214.499H402.676V280.613ZM402.676 211.19H278.876V145.075H402.676V211.19ZM529.78 350.025H405.98V283.922H529.78V350.025ZM529.78 280.613H405.98V214.499H529.78V280.613ZM529.78 211.19H405.98V145.075H529.78V211.19Z" fill="white"/>
<path d="M218.947 161.153H176.4V202.399H218.947V161.153Z" fill="#CACACA"/>
<path d="M610.665 294.707H568.118V335.952H610.665V294.707Z" fill="#CACACA"/>
<path d="M232.164 363.288H189.617V404.533H232.164V363.288Z" fill="#CACACA"/>
<path d="M244.739 153.501H202.192V194.747H244.739V153.501Z" fill="#E7301C"/>
<path d="M444.745 324.951L495.234 279.907L510.129 287.297L449.574 350.895L444.745 324.951Z" fill="#FFB6B6"/>
<path d="M501.879 295.388C508.515 295.388 513.895 290.002 513.895 283.357C513.895 276.712 508.515 271.325 501.879 271.325C495.243 271.325 489.863 276.712 489.863 283.357C489.863 290.002 495.243 295.388 501.879 295.388Z" fill="#FFB6B6"/>
<path d="M397.485 663.983H385.538L379.854 617.841L397.486 617.842L397.485 663.983Z" fill="#FFB6B6"/>
<path d="M400.531 675.579L362.01 675.577V675.09C362.01 671.108 363.59 667.289 366.402 664.474C369.213 661.658 373.027 660.076 377.003 660.076H377.004L400.532 660.077L400.531 675.579Z" fill="#2F2E41"/>
<path d="M354.228 663.983H342.28L336.597 617.841L354.229 617.842L354.228 663.983Z" fill="#FFB6B6"/>
<path d="M357.274 675.579L318.753 675.577V675.09C318.753 671.108 320.333 667.289 323.144 664.474C325.956 661.658 329.77 660.076 333.746 660.076H333.747L357.275 660.077L357.274 675.579Z" fill="#2F2E41"/>
<path d="M407.518 400.225C407.518 400.225 437.558 397.819 427.946 450.759C418.333 503.699 398.421 648.516 398.421 648.516L380.369 651L369.704 457.818L361.636 651L338.677 648.516L316.198 441.133C316.198 441.133 308.98 424.459 316.194 412.944C323.407 401.428 407.518 400.225 407.518 400.225Z" fill="#2F2E41"/>
<path d="M388.293 269.079L396.633 264.604C396.633 264.604 417.182 262.849 425.568 287.02L447.808 320.655L483.855 289.372L499.476 300.201L454.045 354.494L435.155 356.911L394.301 303.971L388.293 269.079Z" fill="#3F3D56"/>
<path d="M358.029 171.46C323.763 171.46 314.171 209.152 314.171 230.416C314.171 251.68 333.807 248.464 358.029 248.464C368.426 248.464 377.971 249.052 385.488 248.047L389.103 239.207L392.013 246.532C398.183 244.262 401.887 239.648 401.887 230.416C401.887 209.152 393.476 171.46 358.029 171.46Z" fill="#2F2E41"/>
<path d="M357.882 248.428C374.182 248.428 387.395 235.198 387.395 218.877C387.395 202.556 374.182 189.326 357.882 189.326C341.583 189.326 328.37 202.556 328.37 218.877C328.37 235.198 341.583 248.428 357.882 248.428Z" fill="#FFB6B6"/>
<path d="M323.784 215.978H335.456L340.606 201.54L341.636 215.978H347.215L350.219 207.556L350.819 215.978H392.274C392.274 207.681 388.983 199.724 383.124 193.858C377.265 187.991 369.319 184.695 361.033 184.695H355.025C346.739 184.695 338.793 187.991 332.934 193.858C327.075 199.724 323.784 207.681 323.784 215.978Z" fill="#2F2E41"/>
<path d="M521.105 237.724H478.557V278.969H521.105V237.724Z" fill="#E7301C"/>
<path d="M416.856 389.338C412.325 389.397 398.676 308.304 398.676 308.304L396.633 264.604L381.72 264.102V263.12C381.72 261.148 380.938 259.256 379.545 257.861C378.152 256.467 376.263 255.683 374.293 255.683H345.89C344.003 255.684 342.188 256.405 340.812 257.698C339.437 258.992 338.606 260.761 338.487 262.647L326.792 262.253L306.538 326.688C306.538 326.688 325.201 386.559 316.194 412.944C316.194 412.944 403.955 420.49 420.757 403.74C420.757 403.74 421.387 389.28 416.856 389.338Z" fill="#3F3D56"/>
<path d="M331.818 270.282L326.792 262.253C326.792 262.253 310.438 258.205 303.705 269.056C296.972 279.907 277.182 338.703 277.182 338.703L297.609 345.922L320.789 313.381L331.818 270.282Z" fill="#3F3D56"/>
<path d="M382.922 312.321H340.375V353.567H382.922V312.321Z" fill="#E7301C"/>
<path d="M307.731 327.228L292.928 325.66C291.994 327.657 291.525 329.84 291.557 332.045C291.59 334.25 292.122 336.419 293.115 338.387C294.108 340.356 295.535 342.072 297.288 343.407C299.042 344.741 301.075 345.659 303.235 346.091L361.804 357.796L355.695 338.955L307.731 327.228Z" fill="#FFB6B6"/>
<path d="M361.981 358.013C368.617 358.013 373.997 352.626 373.997 345.981C373.997 339.336 368.617 333.949 361.981 333.949C355.345 333.949 349.965 339.336 349.965 345.981C349.965 352.626 355.345 358.013 361.981 358.013Z" fill="#FFB6B6"/>
<path d="M346.981 358.379L302.36 348.17C299.127 347.421 296.141 345.849 293.693 343.606C291.244 341.363 289.415 338.525 288.383 335.367L286.58 329.799L298.16 320.674L351.213 335.522L346.981 358.379Z" fill="#3F3D56"/>
</svg>

<svg width="696" height="678" fill="none" xmlns="http://www.w3.org/2000/svg"><path d="M23.678 22.189c6.12 0 11.08-4.968 11.08-11.095C34.758 4.967 29.798 0 23.678 0s-11.08 4.967-11.08 11.094 4.96 11.095 11.08 11.095zM61.953 22.189c6.119 0 11.08-4.968 11.08-11.095C73.032 4.967 68.072 0 61.953 0c-6.12 0-11.08 4.967-11.08 11.094s4.96 11.095 11.08 11.095zM100.228 22.189c6.119 0 11.079-4.968 11.079-11.095 0-6.127-4.96-11.094-11.079-11.094-6.12 0-11.08 4.967-11.08 11.094s4.96 11.095 11.08 11.095z" fill="#3F3D56"/><path d="M656.884 81.92H20.907v337.396h635.977V81.92z" fill="#F0F0F0"/><path d="M656.884 145.075v-3.309H533.085V81.92h-3.305v59.846h-123.8V81.92h-3.304v59.846h-123.8V81.92h-3.304v59.846h-123.8V81.92h-3.305v59.846H20.907v3.309h127.56v66.115H20.907v3.309h127.56v66.114H20.907v3.309h127.56v66.103H20.907v3.309h127.56v65.982h3.305v-65.982h123.8v65.982h3.304v-65.982h123.8v65.982h3.304v-65.982h123.8v65.982h3.305v-65.982h123.799v-3.309H533.085v-66.103h123.799v-3.309H533.085v-66.114h123.799v-3.309H533.085v-66.115h123.799zm-381.312 204.95h-123.8v-66.103h123.8v66.103zm0-69.412h-123.8v-66.114h123.8v66.114zm0-69.423h-123.8v-66.115h123.8v66.115zm127.104 138.835h-123.8v-66.103h123.8v66.103zm0-69.412h-123.8v-66.114h123.8v66.114zm0-69.423h-123.8v-66.115h123.8v66.115zM529.78 350.025h-123.8v-66.103h123.8v66.103zm0-69.412h-123.8v-66.114h123.8v66.114zm0-69.423h-123.8v-66.115h123.8v66.115z" fill="#fff"/><path d="M218.947 161.153H176.4v41.246h42.547v-41.246zM610.665 294.707h-42.547v41.245h42.547v-41.245zM232.164 363.288h-42.547v41.245h42.547v-41.245z" fill="#CACACA"/><path d="M244.739 153.501h-42.547v41.246h42.547v-41.246z" fill="#E7301C"/><path d="m444.745 324.951 50.489-45.044 14.895 7.39-60.555 63.598-4.829-25.944z" fill="#FFB6B6"/><path d="M501.879 295.388c6.636 0 12.016-5.386 12.016-12.031 0-6.645-5.38-12.032-12.016-12.032s-12.016 5.387-12.016 12.032c0 6.645 5.38 12.031 12.016 12.031zM397.485 663.983h-11.947l-5.684-46.142 17.632.001-.001 46.141z" fill="#FFB6B6"/><path d="m400.531 675.579-38.521-.002v-.487c0-3.982 1.58-7.801 4.392-10.616a14.98 14.98 0 0 1 10.601-4.398h.001l23.528.001-.001 15.502z" fill="#2F2E41"/><path d="M354.228 663.983H342.28l-5.683-46.142 17.632.001-.001 46.141z" fill="#FFB6B6"/><path d="m357.274 675.579-38.521-.002v-.487c0-3.982 1.58-7.801 4.391-10.616a14.983 14.983 0 0 1 10.602-4.398h.001l23.528.001-.001 15.502zM407.518 400.225s30.04-2.406 20.428 50.534c-9.613 52.94-29.525 197.757-29.525 197.757L380.369 651l-10.665-193.182L361.636 651l-22.959-2.484-22.479-207.383s-7.218-16.674-.004-28.189c7.213-11.516 91.324-12.719 91.324-12.719z" fill="#2F2E41"/><path d="m388.293 269.079 8.34-4.475s20.549-1.755 28.935 22.416l22.24 33.635 36.047-31.283 15.621 10.829-45.431 54.293-18.89 2.417-40.854-52.94-6.008-34.892z" fill="#3F3D56"/><path d="M358.029 171.46c-34.266 0-43.858 37.692-43.858 58.956 0 21.264 19.636 18.048 43.858 18.048 10.397 0 19.942.588 27.459-.417l3.615-8.84 2.91 7.325c6.17-2.27 9.874-6.884 9.874-16.116 0-21.264-8.411-58.956-43.858-58.956z" fill="#2F2E41"/><path d="M357.882 248.428c16.3 0 29.513-13.23 29.513-29.551 0-16.321-13.213-29.551-29.513-29.551-16.299 0-29.512 13.23-29.512 29.551 0 16.321 13.213 29.551 29.512 29.551z" fill="#FFB6B6"/><path d="M323.784 215.978h11.672l5.15-14.438 1.03 14.438h5.579l3.004-8.422.6 8.422h41.455a31.3 31.3 0 0 0-9.15-22.12 31.22 31.22 0 0 0-22.091-9.163h-6.008a31.22 31.22 0 0 0-22.091 9.163 31.3 31.3 0 0 0-9.15 22.12z" fill="#2F2E41"/><path d="M521.105 237.724h-42.548v41.245h42.548v-41.245z" fill="#E7301C"/><path d="M416.856 389.338c-4.531.059-18.18-81.034-18.18-81.034l-2.043-43.7-14.913-.502v-.982a7.443 7.443 0 0 0-2.175-5.259 7.425 7.425 0 0 0-5.252-2.178H345.89a7.421 7.421 0 0 0-7.403 6.964l-11.695-.394-20.254 64.435s18.663 59.871 9.656 86.256c0 0 87.761 7.546 104.563-9.204 0 0 .63-14.46-3.901-14.402z" fill="#3F3D56"/><path d="m331.818 270.282-5.026-8.029s-16.354-4.048-23.087 6.803c-6.733 10.851-26.523 69.647-26.523 69.647l20.427 7.219 23.18-32.541 11.029-43.099z" fill="#3F3D56"/><path d="M382.922 312.321h-42.547v41.246h42.547v-41.246z" fill="#E7301C"/><path d="m307.731 327.228-14.803-1.568a14.562 14.562 0 0 0 .187 12.727 14.531 14.531 0 0 0 10.12 7.704l58.569 11.705-6.109-18.841-47.964-11.727z" fill="#FFB6B6"/><path d="M361.981 358.013c6.636 0 12.016-5.387 12.016-12.032 0-6.645-5.38-12.032-12.016-12.032s-12.016 5.387-12.016 12.032c0 6.645 5.38 12.032 12.016 12.032z" fill="#FFB6B6"/><path d="M346.981 358.379 302.36 348.17a19.267 19.267 0 0 1-8.667-4.564 19.303 19.303 0 0 1-5.31-8.239l-1.803-5.568 11.58-9.125 53.053 14.848-4.232 22.857z" fill="#3F3D56"/></svg>
